X: 122004
T: BABES IN THE WOOD
P: Same figure.
%R: reel
B: James Kerr "Merry Melodies" v.1 p.22 s.0 #4
Z: 2017 John Chambers <jc:trillian.mit.edu>
N: The (.*.*) notation is used for a straight-line slur in this tune.
M: 2/4
L: 1/16
K: A
|:\
vA3uc ecAc | e2a2g2f2 |\
e3c ecAc | B2d2c2B2 |\
A3c ecAc | e2a2g2f2 |\
e3c a2c2 | B4 A4 :|
|:\
E3G BGEG | B2d2c2B2 |\
A3c ecAc | e2a2g2f2 |\
ve3vcua3uf | e2ec ua3uf |\
ve3vc(.a2.c2) | B4 A4 :|

%%sep 1 1 500
%%sep 1 1 500

